X: 1
T:Flop-eared mule
C:anon.
O:USA
R:Reel
Z:Transcribed by Frank Nordberg - http://www.musicaviva.com
M:2/4
L:1/16
Q:1/4=132
K:D
"D"f2ff d2dd|"D"A2AA F2FF|"A7"E2G2 F2E2|\
[1"D"(DEFG) A4:|[2"D"D2F2 D4|:"A"({=c}[^c2e2])[ce][ce] ({=c}v[^c2e2])[ce][ce]|\
"A"({=c}[^c2e2])[ce][ce] ({=c}[^c2e2])[ce][ce]|"E7"[B2e2][d2e2] [c2e2][B2e2]|\
[1"A"[A2e2][c2e2][e4e4]:|[2"A""_Rep. ad lib"[A2e2][c2e2] [A4e4]||
